public/static/img/assets/swap_icon.svg

<svg width="28" height="28" viewBox="0 0 28 28" fill="none" xmlns="http://www.w3.org/2000/svg">
<path d="M14.738 11.0555V8.10814H16.9485V11.0555H19.159V13.266H14.738V15.4766H19.159V17.6871H14.738V20.6345H12.5274V17.6871H8.10639V15.4766H12.5274V13.266H8.10639V11.0555H10.3169V8.10814H12.5274V11.0555H14.738ZM3.24765 20.4304L2.8785 21.3713H0.667969L2.02523 17.6871H4.3625C5.84576 21.5651 9.60144 24.3187 14.0011 24.3187C19.6984 24.3187 24.3169 19.7001 24.3169 14.0029H26.5274C26.5274 20.9211 20.9193 26.5292 14.0011 26.5292C9.43271 26.5292 5.43607 24.0836 3.24765 20.4304ZM25.9792 10.3187H23.6398C22.1565 6.44067 18.4001 3.68709 14.0011 3.68709C8.30386 3.68709 3.68534 8.30561 3.68534 14.0029H1.47481C1.47481 7.08467 7.08292 1.47656 14.0011 1.47656C18.5725 1.47656 22.5713 3.92509 24.759 7.58204L25.1348 6.63446H27.3453L25.9792 10.3187Z" fill="#333333"/>
</svg>

<svg width="28" height="28" viewBox="0 0 28 28" fill="none" xmlns="http://www.w3.org/2000/svg"><path d="M14.738 11.056V8.107h2.21v2.947h2.211v2.211h-4.421v2.21h4.421v2.211h-4.421v2.947h-2.21v-2.947H8.105v-2.21h4.421v-2.211h-4.42v-2.21h2.21V8.107h2.21v2.947h2.211zM3.248 20.43l-.37.941H.668l1.357-3.684h2.337a10.32 10.32 0 0 0 9.64 6.632c5.696 0 10.315-4.619 10.315-10.316h2.21c0 6.918-5.608 12.526-12.526 12.526A12.52 12.52 0 0 1 3.248 20.43zm22.731-10.11h-2.34a10.32 10.32 0 0 0-9.638-6.632c-5.697 0-10.316 4.619-10.316 10.316h-2.21C1.475 7.085 7.083 1.477 14 1.477a12.52 12.52 0 0 1 10.76 6.105l.376-.948h2.21L25.98 10.32z" fill="#333"/></svg>
